**kern	**silbe	**harmony	**phrase	**leadinstrument	**rhyme	**timestamp	**harte
*ICvox	*	*M4/4	*	*	*	*	*M4/4
*VRlead	*	*	*	*	*	*	*
*Hstimme	*	*	*	*	*	*	*
*B-:	*	*B-:	*	*	*	*	*B-:
*M4/4	*	*	*	*	*	*	*
*clefG2	*	*	*	*	*	*	*
r;	.	1r;	.	r	.	0	N.C.
=1	=1	=1	=1	=1	=1	=1	=1
*>Letter>A	*>Letter>A	*>Letter>A	*>Letter>A	*>Letter>A	*>Letter>A	*>Letter>A	*>Letter>A
*>Label>Verse	*>Label>Verse	*>Label>Verse	*>Label>Verse	*>Label>Verse	*>Label>Verse	*>Label>Verse	*>Label>Verse
8r	.	1B-M	newline	voice	.	1.001	B-:maj
8d	Come	.	.	.	.	.	.
4d	on	.	.	.	.	.	.
8d	ba-	.	.	.	.	.	.
8c	-by	.	.	.	.	.	.
8B-	and	.	.	.	.	.	.
8A	_	.	.	.	.	.	.
=2	=2	=2	=2	=2	=2	=2	=2
8G	be	1E-M	.	voice	.	2.616	E-:maj
4G	my	.	.	.	.	.	.
[8G	guest	.	.	.	A	.	.
4G]	_	.	.	.	.	.	.
4r	.	.	.	.	.	.	.
=3	=3	=3	=3	=3	=3	=3	=3
8r	.	1B-M	.	voice	.	4.232	B-:maj
8B-	come	.	.	.	.	.	.
8B-	join	.	.	.	.	.	.
8B-	the	.	.	.	.	.	.
8B-	par-	.	.	.	.	.	.
8B-	-ty	.	.	.	.	.	.
8r	.	.	.	.	.	.	.
8B-	and	.	.	.	.	.	.
=4	=4	=4	=4	=4	=4	=4	=4
8.A	meet	1FMm	.	voice	.	5.847	F:7
[16B-	the	.	.	.	.	.	.
8B-]	_	.	.	.	.	.	.
[8c	rest	.	.	.	A	.	.
4c]	_	.	.	.	.	.	.
4r	.	.	.	.	.	.	.
=5	=5	=5	=5	=5	=5	=5	=5
4r	.	1B-M	newline	voice	.	7.463	B-:maj
8d	ev-	.	.	.	.	.	.
8d	-ery-	.	.	.	.	.	.
8d	-thing	.	.	.	.	.	.
8c	is	.	.	.	.	.	.
8B-	gon-	.	.	.	.	.	.
8A	-na	.	.	.	.	.	.
=6	=6	=6	=6	=6	=6	=6	=6
8G	be	1E-M	.	voice	.	9.083	E-:maj
4G	all	.	.	.	.	.	.
[8B-	right	.	.	.	B	.	.
4B-]	_	.	.	.	.	.	.
8r	.	.	.	.	.	.	.
8G	so	.	.	.	.	.	.
=7	=7	=7	=7	=7	=7	=7	=7
4F	be	2B-M	.	voice	.	10.703	B-:maj
4F	my	.	.	.	.	.	.
4d	guest	2FMm	.	voice	.	11.513	F:7
8c	to	.	.	.	.	.	.
[8B-	night	.	.	.	B	.	.
=8	=8	=8	=8	=8	=8	=8	=8
4B-]	_	1B-M	.	voice	.	12.322	B-:maj
4r	.	.	.	.	.	.	.
2r	.	.	.	.	.	.	.
=9	=9	=9	=9	=9	=9	=9	=9
*>Letter>A	*>Letter>A	*>Letter>A	*>Letter>A	*>Letter>A	*>Letter>A	*>Letter>A	*>Letter>A
*>Label>Verse	*>Label>Verse	*>Label>Verse	*>Label>Verse	*>Label>Verse	*>Label>Verse	*>Label>Verse	*>Label>Verse
8r	.	1B-M	newline	voice	.	13.942	B-:maj
8d	We're	.	.	.	.	.	.
8d	gon-	.	.	.	.	.	.
8d	-na	.	.	.	.	.	.
8d	dance	.	.	.	.	.	.
8c	_	.	.	.	.	.	.
8B-	to	.	.	.	.	.	.
8A	the	.	.	.	.	.	.
=10	=10	=10	=10	=10	=10	=10	=10
4G	rock	1E-M	.	voice	.	15.566	E-:maj
8G	and	.	.	.	.	.	.
[8B-	roll	.	.	.	C	.	.
4B-]	_	.	.	.	.	.	.
4r	.	.	.	.	.	.	.
=11	=11	=11	=11	=11	=11	=11	=11
8r	.	1B-M	.	voice	.	17.19	B-:maj
8B-	We're	.	.	.	.	.	.
8B-	gon-	.	.	.	.	.	.
8B-	-na	.	.	.	.	.	.
8B-	e-	.	.	.	.	.	.
8B-	-ven	.	.	.	.	.	.
4r	.	.	.	.	.	.	.
=12	=12	=12	=12	=12	=12	=12	=12
4A	do	1FMm	.	voice	.	18.813	F:7
8B-	the	.	.	.	.	.	.
4.c	stroll	.	.	.	C	.	.
4r	.	.	.	.	.	.	.
=13	=13	=13	=13	=13	=13	=13	=13
8r	.	1B-M	newline	voice	.	20.437	B-:maj
8d	We're	.	.	.	.	.	.
8d	gon-	.	.	.	.	.	.
8d	-na	.	.	.	.	.	.
8d	Lin-	.	.	.	.	.	.
8c	-dy	.	.	.	.	.	.
8B-	Hop	.	.	.	.	.	.
8A	and	.	.	.	.	.	.
=14	=14	=14	=14	=14	=14	=14	=14
4G	Su-	1E-M	.	voice	.	22.049	E-:maj
8G	-zy	.	.	.	.	.	.
[8B-	Q	.	.	.	D	.	.
8B-]	_	.	.	.	.	.	.
8r	.	.	.	.	.	.	.
8d	It's	.	.	.	.	.	.
8d	a	.	.	.	.	.	.
=15	=15	=15	=15	=15	=15	=15	=15
4d	spec-	1B-M	.	voice	.	23.66	B-:maj
4d	-ail	.	.	.	.	.	.
4d	par-	.	.	.	.	.	.
4B-	-ty	.	.	.	.	.	.
=16	=16	=16	=16	=16	=16	=16	=16
4c	just	2FMm	.	voice	.	25.272	F:7
8A	for	.	.	.	.	.	.
[8B-	you	.	.	.	D	.	.
4B-]	_	2B-M	.	voice	.	26.077	B-:maj
4r	.	.	.	.	.	.	.
=17	=17	=17	=17	=17	=17	=17	=17
*>Letter>B	*>Letter>B	*>Letter>B	*>Letter>B	*>Letter>B	*>Letter>B	*>Letter>B	*>Letter>B
*>Label>Chorus	*>Label>Chorus	*>Label>Chorus	*>Label>Chorus	*>Label>Chorus	*>Label>Chorus	*>Label>Chorus	*>Label>Chorus
4r	.	1E-M	newline	voice	.	26.883	E-:maj
2e-	My	.	.	.	.	.	.
4r	.	.	.	.	.	.	.
=18	=18	=18	=18	=18	=18	=18	=18
4d	my	1B-M	.	voice	.	28.515	B-:maj
8c	oh	.	.	.	.	.	.
[8B-	mine	.	.	.	E	.	.
4B-]	_	.	.	.	.	.	.
4r	.	.	.	.	.	.	.
=19	=19	=19	=19	=19	=19	=19	=19
4r	.	1FMm	.	voice	.	30.147	F:7
2c	gee	.	.	.	.	.	.
4r	.	.	.	.	.	.	.
=20	=20	=20	=20	=20	=20	=20	=20
4d	you're	1B-M	.	voice	.	31.778	B-:maj
8c	so	.	.	.	.	.	.
[8B-	fine	.	.	.	E	.	.
4B-]	_	.	.	.	.	.	.
4r	.	.	.	.	.	.	.
=21	=21	=21	=21	=21	=21	=21	=21
4r	.	1E-M	newline	voice	.	33.41	E-:maj
2e-	Don't	.	.	.	.	.	.
4r	.	.	.	.	.	.	.
=22	=22	=22	=22	=22	=22	=22	=22
4d	let	1B-M	.	voice	.	35.019	B-:maj
8c	me	.	.	.	.	.	.
[8B-	down	.	.	.	F	.	.
4B-]	_	.	.	.	.	.	.
4r	.	.	.	.	.	.	.
=23	=23	=23	=23	=23	=23	=23	=23
4r	.	1FMm	.	voice	.	36.627	F:7
8c	I'm	.	.	.	.	.	.
8c	the	.	.	.	.	.	.
8c	king	.	.	.	.	.	.
8A	but	.	.	.	.	.	.
8B-	you	.	.	.	.	.	.
8c	can	.	.	.	.	.	.
=24	=24	=24	=24	=24	=24	=24	=24
8.d	wear	1B-M	.	voice	.	38.236	B-:maj
[16c	my	.	.	.	.	.	.
8c]	_	.	.	.	.	.	.
[8B-	crown	.	.	.	F	.	.
4B-]	_	.	.	.	.	.	.
4r	.	.	.	.	.	.	.
=25	=25	=25	=25	=25	=25	=25	=25
*>Letter>A	*>Letter>A	*>Letter>A	*>Letter>A	*>Letter>A	*>Letter>A	*>Letter>A	*>Letter>A
*>Label>Verse	*>Label>Verse	*>Label>Verse	*>Label>Verse	*>Label>Verse	*>Label>Verse	*>Label>Verse	*>Label>Verse
8r	.	1B-M	newline	voice	.	39.844	B-:maj
8d	I'm	.	.	.	.	.	.
8d	gon-	.	.	.	.	.	.
8d	-na	.	.	.	.	.	.
8d	sing	.	.	.	.	.	.
8c	_	.	.	.	.	.	.
8r	.	.	.	.	.	.	.
8B-	my	.	.	.	.	.	.
=26	=26	=26	=26	=26	=26	=26	=26
8G	band	1E-M	.	voice	.	41.476	E-:maj
8G	gon-	.	.	.	.	.	.
8G	-na	.	.	.	.	.	.
[8G	play	.	.	.	G	.	.
4G]	_	.	.	.	.	.	.
4r	.	.	.	.	.	.	.
=27	=27	=27	=27	=27	=27	=27	=27
8r	.	1B-M	.	voice	.	43.107	B-:maj
8B-	I'm	.	.	.	.	.	.
8B-	gon-	.	.	.	.	.	.
8B-	-na	.	.	.	.	.	.
8B-	make	.	.	.	.	.	.
8B-	you	.	.	.	.	.	.
4r	.	.	.	.	.	.	.
=28	=28	=28	=28	=28	=28	=28	=28
4A	queen	.	.	.	.	.	.
8B-	for'a	1FMm	.	voice	.	44.739	F:7
[8c	day	.	.	.	G	.	.
4c]	_	.	.	.	.	.	.
4r	.	.	.	.	.	.	.
=29	=29	=29	=29	=29	=29	=29	=29
4r	.	1B-M	newline	voice	.	46.37	B-:maj
8d	ev-	.	.	.	.	.	.
8d	-ery-	.	.	.	.	.	.
8d	-thing	.	.	.	.	.	.
8c	is	.	.	.	.	.	.
8B-	gon-	.	.	.	.	.	.
8A	-na	.	.	.	.	.	.
=30	=30	=30	=30	=30	=30	=30	=30
8G	be	1E-M	.	voice	.	48.003	E-:maj
4G	al-	.	.	.	.	.	.
[8B-	-right	.	.	.	B	.	.
4B-]	_	.	.	.	.	.	.
8r	.	.	.	.	.	.	.
8G	so	.	.	.	.	.	.
=31	=31	=31	=31	=31	=31	=31	=31
4F	be	2B-M	.	voice	.	49.637	B-:maj
4F	my	.	.	.	.	.	.
4d	guest	2FMm	.	voice	.	50.453	F:7
8c	to	.	.	.	.	.	.
[8B-	night	.	.	.	B	.	.
=32	=32	=32	=32	=32	=32	=32	=32
4B-]	_	1B-M	.	voice	.	51.27	B-:maj
4r	.	.	.	.	.	.	.
2r	.	.	.	.	.	.	.
=33	=33	=33	=33	=33	=33	=33	=33
*>Letter>A	*>Letter>A	*>Letter>A	*>Letter>A	*>Letter>A	*>Letter>A	*>Letter>A	*>Letter>A
*>Label>Instrumental	*>Label>Instrumental	*>Label>Instrumental	*>Label>Instrumental	*>Label>Instrumental	*>Label>Instrumental	*>Label>Instrumental	*>Label>Instrumental
1r	.	1B-M	newline	voice	.	52.903	B-:maj
=34	=34	=34	=34	=34	=34	=34	=34
1r	.	1E-M	.	voice	.	54.553	E-:maj
=35	=35	=35	=35	=35	=35	=35	=35
1r	.	1FMm	.	voice	.	56.202	F:7
=36	=36	=36	=36	=36	=36	=36	=36
1r	.	1B-M	.	voice	.	57.852	B-:maj
=37	=37	=37	=37	=37	=37	=37	=37
1r	.	1B-M	newline	voice	.	59.502	B-:maj
=38	=38	=38	=38	=38	=38	=38	=38
1r	.	1E-M	.	voice	.	61.131	E-:maj
=39	=39	=39	=39	=39	=39	=39	=39
1r	.	1FMm	.	voice	.	62.76	F:7
=40	=40	=40	=40	=40	=40	=40	=40
1r	.	1B-M	.	voice	.	64.389	B-:maj
=41	=41	=41	=41	=41	=41	=41	=41
1r	.	1B-M	newline	voice	.	66.018	B-:maj
=42	=42	=42	=42	=42	=42	=42	=42
1r	.	1E-M	.	voice	.	67.648	E-:maj
=43	=43	=43	=43	=43	=43	=43	=43
1r	.	1FMm	.	voice	.	69.279	F:7
=44	=44	=44	=44	=44	=44	=44	=44
1r	.	1B-M	.	voice	.	70.91	B-:maj
=45	=45	=45	=45	=45	=45	=45	=45
1r	.	1B-M	newline	voice	.	72.54	B-:maj
=46	=46	=46	=46	=46	=46	=46	=46
1r	.	1E-M	.	voice	.	74.198	E-:maj
=47	=47	=47	=47	=47	=47	=47	=47
1r	.	1FMm	.	voice	.	75.856	F:7
=48	=48	=48	=48	=48	=48	=48	=48
1r	.	1B-M	.	voice	.	77.514	B-:maj
=49	=49	=49	=49	=49	=49	=49	=49
*>Letter>B	*>Letter>B	*>Letter>B	*>Letter>B	*>Letter>B	*>Letter>B	*>Letter>B	*>Letter>B
*>Label>Chorus	*>Label>Chorus	*>Label>Chorus	*>Label>Chorus	*>Label>Chorus	*>Label>Chorus	*>Label>Chorus	*>Label>Chorus
4r	.	1E-M	newline	voice	.	79.171	E-:maj
2e-	My	.	.	.	.	.	.
4r	.	.	.	.	.	.	.
=50	=50	=50	=50	=50	=50	=50	=50
4d	my	1B-M	.	voice	.	80.799	B-:maj
8c	oh	.	.	.	.	.	.
[8B-	mine	.	.	.	E	.	.
4B-]	_	.	.	.	.	.	.
4r	.	.	.	.	.	.	.
=51	=51	=51	=51	=51	=51	=51	=51
4r	.	1FMm	.	voice	.	82.427	F:7
2c	gee	.	.	.	.	.	.
4r	.	.	.	.	.	.	.
=52	=52	=52	=52	=52	=52	=52	=52
4d	you're	1B-M	.	voice	.	84.055	B-:maj
8c	so	.	.	.	.	.	.
[8B-	fine	.	.	.	E	.	.
4B-]	_	.	.	.	.	.	.
4r	.	.	.	.	.	.	.
=53	=53	=53	=53	=53	=53	=53	=53
4r	.	1E-M	newline	voice	.	85.682	E-:maj
2e-	Don't	.	.	.	.	.	.
4r	.	.	.	.	.	.	.
=54	=54	=54	=54	=54	=54	=54	=54
4d	let	1B-M	.	voice	.	87.326	B-:maj
8c	me	.	.	.	.	.	.
[8B-	down	.	.	.	F	.	.
4B-]	_	.	.	.	.	.	.
4r	.	.	.	.	.	.	.
=55	=55	=55	=55	=55	=55	=55	=55
4r	.	1FMm	.	voice	.	88.969	F:7
8c	I'm	.	.	.	.	.	.
8c	the	.	.	.	.	.	.
8c	queen	.	.	.	.	.	.
8A	but	.	.	.	.	.	.
8B-	you	.	.	.	.	.	.
8c	can	.	.	.	.	.	.
=56	=56	=56	=56	=56	=56	=56	=56
8.d	wear	1B-M	.	voice	.	90.612	B-:maj
[16c	my	.	.	.	.	.	.
8c]	_	.	.	.	.	.	.
[8B-	crown	.	.	.	F	.	.
4B-]	_	.	.	.	.	.	.
4r	.	.	.	.	.	.	.
=57	=57	=57	=57	=57	=57	=57	=57
*>Letter>A	*>Letter>A	*>Letter>A	*>Letter>A	*>Letter>A	*>Letter>A	*>Letter>A	*>Letter>A
*>Label>Verse	*>Label>Verse	*>Label>Verse	*>Label>Verse	*>Label>Verse	*>Label>Verse	*>Label>Verse	*>Label>Verse
8r	.	1B-M	newline	voice	.	92.256	B-:maj
8d	I'm	.	.	.	.	.	.
8d	gon-	.	.	.	.	.	.
8d	-na	.	.	.	.	.	.
8d	sing	.	.	.	.	.	.
8c	_	.	.	.	.	.	.
8r	.	.	.	.	.	.	.
8B-	my	.	.	.	.	.	.
=58	=58	=58	=58	=58	=58	=58	=58
8G	band	1E-M	.	voice	.	93.899	E-:maj
8G	gon-	.	.	.	.	.	.
8G	-na	.	.	.	.	.	.
[8G	play	.	.	.	G	.	.
4G]	_	.	.	.	.	.	.
4r	.	.	.	.	.	.	.
=59	=59	=59	=59	=59	=59	=59	=59
8r	.	1B-M	.	voice	.	95.542	B-:maj
8B-	I'm	.	.	.	.	.	.
8B-	gon-	.	.	.	.	.	.
8B-	-na	.	.	.	.	.	.
8B-	make	.	.	.	.	.	.
8B-	you	.	.	.	.	.	.
4r	.	.	.	.	.	.	.
=60	=60	=60	=60	=60	=60	=60	=60
4A	queen	.	.	.	.	.	.
8B-	for'a	1FMm	.	voice	.	97.186	F:7
[8c	day	.	.	.	G	.	.
4c]	_	.	.	.	.	.	.
4r	.	.	.	.	.	.	.
=61	=61	=61	=61	=61	=61	=61	=61
4r	.	1B-M	newline	voice	.	98.829	B-:maj
8d	ev-	.	.	.	.	.	.
8d	-ery-	.	.	.	.	.	.
8d	-thing	.	.	.	.	.	.
8c	is	.	.	.	.	.	.
8B-	gon-	.	.	.	.	.	.
8A	-na	.	.	.	.	.	.
=62	=62	=62	=62	=62	=62	=62	=62
8G	be	1E-M	.	voice	.	100.472	E-:maj
4G	al-	.	.	.	.	.	.
[8B-	-right	.	.	.	B	.	.
4B-]	_	.	.	.	.	.	.
8r	.	.	.	.	.	.	.
8G	so	.	.	.	.	.	.
=63	=63	=63	=63	=63	=63	=63	=63
4F	be	2B-M	.	voice	.	102.114	B-:maj
4F	my	.	.	.	.	.	.
4d	guest	2FMm	.	voice	.	102.936	F:7
8c	to	.	.	.	.	.	.
[8B-	night	.	.	.	B	.	.
=64	=64	=64	=64	=64	=64	=64	=64
4B-]	_	1B-M	.	voice	.	103.757	B-:maj
4r	.	.	.	.	.	.	.
2r	.	.	.	.	.	.	.
=65	=65	=65	=65	=65	=65	=65	=65
*>Letter>A	*>Letter>A	*>Letter>A	*>Letter>A	*>Letter>A	*>Letter>A	*>Letter>A	*>Letter>A
*>Label>Instrumental	*>Label>Instrumental	*>Label>Instrumental	*>Label>Instrumental	*>Label>Instrumental	*>Label>Instrumental	*>Label>Instrumental	*>Label>Instrumental
1r	.	1B-M	newline	voice	.	105.4	B-:maj
=66	=66	=66	=66	=66	=66	=66	=66
1r	.	1E-M	.	voice	.	107.053	E-:maj
=67	=67	=67	=67	=67	=67	=67	=67
1r	.	1FMm	.	voice	.	108.706	F:7
=68	=68	=68	=68	=68	=68	=68	=68
1r	.	1B-M	.	voice	.	110.359	B-:maj
=69	=69	=69	=69	=69	=69	=69	=69
1r	.	1B-M	newline	voice	.	112.012	B-:maj
=70	=70	=70	=70	=70	=70	=70	=70
1r	.	1E-M	.	voice	.	113.676	E-:maj
=71	=71	=71	=71	=71	=71	=71	=71
1r	.	1FMm	.	voice	.	115.34	F:7
=72	=72	=72	=72	=72	=72	=72	=72
1r	.	1B-M	.	voice	.	117.004	B-:maj
=73	=73	=73	=73	=73	=73	=73	=73
1r	.	1B-M	newline	voice	.	118.667	B-:maj
=74	=74	=74	=74	=74	=74	=74	=74
1r	.	1E-M	.	voice	.	120.317	E-:maj
=75	=75	=75	=75	=75	=75	=75	=75
1r	.	1FMm	.	voice	.	121.967	F:7
=76	=76	=76	=76	=76	=76	=76	=76
1r	.	1B-M	.	voice	.	123.617	B-:maj
=77	=77	=77	=77	=77	=77	=77	=77
*>Label>>Fadeout	*>Label>>Fadeout	*>Label>>Fadeout	*>Label>>Fadeout	*>Label>>Fadeout	*>Label>>Fadeout	*>Label>>Fadeout	*>Label>>Fadeout
1r	.	1B-M	newline	voice	.	125.267	B-:maj
=78	=78	=78	=78	=78	=78	=78	=78
1r	.	1E-M	.	voice	.	126.93	E-:maj
=79	=79	=79	=79	=79	=79	=79	=79
1r	.	1FMm	.	voice	.	128.592	F:7
=80	=80	=80	=80	=80	=80	=80	=80
1r	.	1B-M	.	voice	.	130.255	B-:maj
=81	=81	=81	=81	=81	=81	=81	=81
1r	.	1B-M	newline	voice	.	131.918	B-:maj
=82	=82	=82	=82	=82	=82	=82	=82
1r	.	1E-M	.	voice	.	132.294	E-:maj
=83	=83	=83	=83	=83	=83	=83	=83
1r	.	1FMm	.	voice	.	132.67	F:7
=84	=84	=84	=84	=84	=84	=84	=84
1r	.	1B-M	.	voice	.	133.046	B-:maj
r;	.	1r;	.	r	.	133.422	N.C.
r;	.	1r;	.	r	.	135.915	N.C.
*-	*-	*-	*-	*-	*-	*-	*-
!!!BillboardChartDate: 1959/11/16
!!!BillboardPeak: 8
!!!BillboardWeeksOnChart: 14
!!!COC: Fats Domino
!!!EMD: The sections should be relabeled. It's an AABA form, not verse-chorus.-Nat
!!!ENC: Nathaniel Condit-Schultz
!!!EST: Awating manual error checking and editing.
!!!OTL: Be My Guest
!!!RDF**chordsym: original McGill chord annotation + (implied pitch class set, with bass pitch in first position)
!!!RDF**harmony: **recip + pitch class of root + harmonic quality
!!!RDF**leadinstrument: original McGill primary instrumentation annotation
!!!RDF**phrase: newline = linebreak in original McGill transcription
!!!RDF**timestamp: McGill audio timestamp in seconds
!!!RDT: 2017/01/12/
!!!SampleActualRank: 17
!!!SampleID#: 1072
!!!SampleTargetRank: 17
